X:84
T:Trumpet Hornpipe, The
T:Captain Pugwash Theme
R:hornpipe
Z:id:hn-hornpipe-84
M:C|
K:G
|:(3GGG G2 (3GGG Gd|BGBd gdBG|(3DDD D2 (3DDD DA|FDFA cAFA|
(3GGG G2 (3GGG Gd|BGBd g2ag|fagf egfe|1 d2de dcBA:|2 d2de d2B=c||
|:(3ddd d2 (3ddd d2|efgf edcB|cded cBAG|FGAG FDEF|
(3GGG G2 (3BBB B2|(3ddd d2 g3b|agfe dcBA|1 G2B2 G2Bc :|2 G2B2 G4||
<end>
<start>
